X:1
T:Title
%%score ( 1 2 ) { 3 | 4 }
L:1/8
M:4/4
K:C
V:1 treble nm="Grand Piano"
V:2 treble 
V:3 treble nm="Grand Piano"
V:4 bass 
V:1
 z4 z2[Q:1/4=94] [EG]2 | [FA]2 [EG]2 [FA]2 [FB]2 | [Gc]4 [EG]2 [Ec]2 | [DB]2 [Fd]2 [Ec]2 [Ge]2 | %4
w: Am~|sch�ns ten~ Tag~ hie|nie den,~ wenn~|M�h~ und~ Ar beit~|
 [Gd]4 z2 G2 | [Ge]2 [Gd]2 [Ec]2 [GB]2 | G2 z2 z4 | [FA]2 [Ad]2 [Gc]2 [GB]2 | [Gc]4 z4 |] %9
w: fern,~ ver|sam meln~ wir~ in~|Frie|um~ das~ Wort~ des~|Herrn.~|
V:2
 x8 | x8 | x8 | x8 | x8 | x8 | A2- [FA]2 [EG]2 [EG]2 | x8 | x8 |] %9
w: ||||||* * * uns~|||
V:3
 z4 z2 C2 | C2 C2 C2 D2 | E4 C2[K:bass] G,2 | G,2 G,2 G,2 C2 | B,4 z2[K:treble] B,2 | %5
 C2 B,2 C2 E2 | C4 C2 C2 | C2 F2 E2 D2 | E4 z4 |] %9
V:4
 z4 z2 C,2 | F,2 C,2 F,2 D,2 | C,4 C,2 C,2 | G,,2 B,,2 C,2 E,2 | G,4 z2 G,2 | C,2 G,2 A,2 E,2 | %6
 F,4 C,2 C,2 | F,2 D,2 G,2 G,,2 | C,4 z4 |] %9

